X:1
T:Kelly the Pirate (3)
M:3/4
L:1/4
K:E
 G,/2A,/2| B, G3/2 F/2| E B,E/2-D/2| C A, A,| A,2 G,/2A,/2| B, G3/2 F/2|\
 E B,E/2-D/2| D C D| E2 G| F B, G| F/2E/2 D C| B,2 G,/2A,/2| B, G3/2 F/2|\
 E- B, E/2E/2| D C D| E2||

